X:1
T:Title
%%score { 1 | 2 }
L:1/8
M:6/8
K:F
V:1 treble nm="Grand Piano"
V:2 bass 
V:1
 z3 z2[Q:1/4=100] A | c>dc FGA | [DFB]3 [CDA]2 [B,DG] | [A,CF]>[G,CE][A,CF] [EG][DF][EG] | %4
 A3- A2 B | c>dc FGA | [DFB]3 [CDA]2 [B,DG] | [A,CF]>[B,CG][CFA] [Ec][EG][EA] |[M:5/8] F-F- F3 | %9
[M:1/8] F |[M:3/4] [Fd]>[Fd] [Fd]d FF | c3 c2 c | BB BA AA | [EG]4- [EG][EG] | A>B cF GA | %15
 [DFB]3 [CDA]2 [B,DG] | [A,CF]>[B,CG] [CFA][Ec] [EG][EA] |[M:5/8] [CF]-[CF]- [CF]3 |] %18
V:2
 z3 z2 [F,CF] | [F,A,F]>[F,B,F][F,A,F] [F,A,][F,B,F][F,CF] | B,,3 B,,2 B,, | %3
 C,>C,C, [C,C][C,C][C,C] | [F,CF]3- [F,CF]2 [F,G,F] | [F,A,F]>[F,B,F][F,A,F] [F,A,][F,B,F][F,CF] | %6
 B,,3 B,,2 B,, | C,>C,B,, [C,G,][C,B,][C,C] |[M:5/8] [F,A,]-[F,A,]- [F,A,]3 |[M:1/8] [F,A,] | %10
[M:3/4] [B,,B,]>[B,,B,] [B,,B,][K:treble][B,F] [B,D][B,D] | [A,CF]3 [A,CF]2 [A,CF] | %12
 [G,CE][G,CE] [G,CE][F,CF] [F,CF][F,CF] | [C,C]4- [C,C][C,C] | %14
 [F,CF]>[F,G,F] [F,A,F][F,A,] [F,B,F][F,CF] | B,,3 B,,2 B,, | C,>C, C,[C,G,] [C,B,][C,C] | %17
[M:5/8] [F,A,]-[F,A,]- [F,A,]3 |] %18

